X: 41242
T: True Step, The
R: slip jig
M: 9/8
K: Eminor
EGB eBG AFD|EGB egb afd|[M:12/8]gBA fAG eGF dAF|
M:9/8
EGB eBG dAF|EGB e3 dfa|gBG eGF dAF|
M:6/8
cBG EGc|BGE cGE|AFD FAd|fdf a3|
bGE GBG|EGB c'cB|bGE GBG|EGB aFD|gBA fAG|eGF dAF|
cBG EGc|BGE cGE|AFD FAd|fdf a3|
|:BGE BGE|cGE dGE|AFD AFD|BFD cFD|
BGE BGE|cGE d3|AFA dAd|fdf a3:|

